X: 10171
M: 3/4
L: 1/8
K: Bb
uF2 |\
f2f2d>f | b2(b2d2) | c3def | e2d2B>d |\
f2f2d>f | b2(b2d2) | c3def | B2z2 ||
|: ud2 |\
ecAFTE2 | (DF)Bdf2 | (ec)AFTE2 | (DF)Bdf2 |\
(ec)AF TE2 | (DF) Bd fb | e(dec)Ac | B2"_D.C. E."z2 :|


